{"type":"map","version":"1.10","orientation":"isometric","renderorder":"right-down","width":10,"height":10,"tilewidth":132,"tileheight":66,"infinite":false,"layers":[{"id":1,"name":"Landscape","type":"tilelayer","x":0,"y":0,"visible":true,"opacity":1,"width":10,"height":10,"data":[1,1,1,1,2,1,1,1,1,1,1,1,1,1,2,1,1,1,1,1,1,1,1,1,3,1,1,1,1,1,1,1,1,1,4,1,1,1,1,1,1,1,1,1,2,1,1,1,1,1,5,5,5,5,6,5,5,5,5,5,1,1,1,1,2,1,1,1,1,1,1,1,1,1,2,1,1,1,1,1,1,1,1,1,2,1,1,1,1,1,1,1,1,1,2,1,1,1,1,1]},{"id":2,"name":"Gameplay","type":"objectgroup","x":0,"y":0,"visible":true,"opacity":1,"draworder":"topdown","objects":[{"type":"","visible":true,"rotation":0,"id":1,"name":"Spawn","point":true,"x":99,"y":99,"width":0,"height":0},{"type":"Wall","visible":true,"rotation":0,"id":2,"name":"Canal bank","x":0,"y":0,"width":660,"height":12},{"type":"Wall","visible":true,"rotation":0,"id":3,"name":"Canal bank","x":0,"y":648,"width":660,"height":12},{"type":"Wall","visible":true,"rotation":0,"id":4,"name":"Canal bank","x":0,"y":0,"width":12,"height":660},{"type":"Wall","visible":true,"rotation":0,"id":5,"name":"Canal bank","x":648,"y":0,"width":12,"height":660},{"type":"Wall","visible":true,"rotation":0,"id":6,"name":"Canal bank","x":264,"y":0,"width":66,"height":264},{"type":"Wall","visible":true,"rotation":0,"id":7,"name":"Canal bank","x":264,"y":396,"width":66,"height":264}]}],"tilesets":[{"firstgid":1,"name":"landscape-020","tilewidth":133,"tileheight":83,"tilecount":1,"columns":1,"image":"../../demo/vendor/kenney/isometric-tiles-landscape/PNG/landscapeTiles_020.png","imagewidth":133,"imageheight":83,"tileoffset":{"x":0,"y":17}},{"firstgid":2,"name":"landscape-000","tilewidth":132,"tileheight":83,"tilecount":1,"columns":1,"image":"../../demo/vendor/kenney/isometric-tiles-landscape/PNG/landscapeTiles_000.png","imagewidth":132,"imageheight":83,"tileoffset":{"x":0,"y":17}},{"firstgid":3,"name":"landscape-001","tilewidth":132,"tileheight":99,"tilecount":1,"columns":1,"image":"../../demo/vendor/kenney/isometric-tiles-landscape/PNG/landscapeTiles_001.png","imagewidth":132,"imageheight":99,"tileoffset":{"x":0,"y":17}},{"firstgid":4,"name":"landscape-005","tilewidth":132,"tileheight":131,"tilecount":1,"columns":1,"image":"../../demo/vendor/kenney/isometric-tiles-landscape/PNG/landscapeTiles_005.png","imagewidth":132,"imageheight":131,"tileoffset":{"x":0,"y":17}},{"firstgid":5,"name":"landscape-030","tilewidth":132,"tileheight":99,"tilecount":1,"columns":1,"image":"../../demo/vendor/kenney/isometric-tiles-landscape/PNG/landscapeTiles_030.png","imagewidth":132,"imageheight":99,"tileoffset":{"x":0,"y":17}},{"firstgid":6,"name":"landscape-040","tilewidth":132,"tileheight":99,"tilecount":1,"columns":1,"image":"../../demo/vendor/kenney/isometric-tiles-landscape/PNG/landscapeTiles_040.png","imagewidth":132,"imageheight":99,"tileoffset":{"x":0,"y":17}}]}
