{
  "type": "map",
  "version": "1.10",
  "tiledversion": "1.10.2",
  "orientation": "orthogonal",
  "renderorder": "right-down",
  "class": "level",
  "width": 20,
  "height": 12,
  "tilewidth": 64,
  "tileheight": 64,
  "infinite": false,
  "backgroundcolor": "#1c242e",
  "properties": [
    {
      "name": "region",
      "type": "string",
      "value": "Workshop"
    }
  ],
  "layers": [
    {
      "id": 1,
      "name": "Ground",
      "type": "tilelayer",
      "visible": true,
      "opacity": 1,
      "x": 0,
      "y": 0,
      "width": 20,
      "height": 12,
      "data": [
        24,
        19,
        19,
        19,
        19,
        19,
        19,
        24,
        19,
        19,
        19,
        19,
        19,
        19,
        24,
        19,
        19,
        19,
        19,
        19,
        19,
        19,
        19,
        19,
        19,
        19,
        24,
        19,
        19,
        19,
        19,
        19,
        19,
        24,
        19,
        19,
        19,
        19,
        19,
        19,
        19,
        19,
        19,
        19,
        19,
        24,
        19,
        19,
        19,
        19,
        19,
        19,
        24,
        19,
        19,
        19,
        19,
        19,
        19,
        24,
        19,
        19,
        19,
        19,
        23,
        23,
        23,
        23,
        23,
        23,
        23,
        23,
        23,
        23,
        23,
        23,
        19,
        19,
        24,
        19,
        19,
        19,
        19,
        24,
        23,
        23,
        23,
        23,
        23,
        23,
        23,
        23,
        23,
        23,
        23,
        23,
        19,
        24,
        19,
        19,
        19,
        19,
        24,
        19,
        23,
        23,
        23,
        23,
        23,
        23,
        23,
        23,
        23,
        23,
        23,
        23,
        24,
        19,
        19,
        19,
        19,
        24,
        19,
        19,
        23,
        23,
        23,
        23,
        23,
        23,
        23,
        23,
        23,
        23,
        23,
        23,
        19,
        19,
        19,
        19,
        24,
        19,
        19,
        19,
        23,
        23,
        23,
        23,
        23,
        23,
        23,
        23,
        23,
        23,
        23,
        23,
        19,
        19,
        19,
        19,
        19,
        19,
        19,
        19,
        23,
        23,
        23,
        23,
        23,
        23,
        23,
        23,
        23,
        23,
        23,
        23,
        19,
        19,
        19,
        19,
        19,
        19,
        19,
        19,
        19,
        24,
        19,
        19,
        19,
        19,
        19,
        19,
        24,
        19,
        19,
        19,
        19,
        19,
        19,
        24,
        19,
        19,
        19,
        19,
        24,
        19,
        19,
        19,
        19,
        19,
        19,
        24,
        19,
        19,
        19,
        19,
        19,
        19,
        24,
        19,
        19,
        19,
        19,
        24,
        19,
        19,
        19,
        19,
        19,
        19,
        24,
        19,
        19,
        19,
        19,
        19,
        19,
        24,
        19,
        19
      ]
    }
  ],
  "tilesets": [
    {
      "firstgid": 1,
      "name": "map-pack",
      "image": "../../demo/vendor/kenney/map-pack/Tilesheet/mapPack_tilesheet.png",
      "imagewidth": 1088,
      "imageheight": 768,
      "tilewidth": 64,
      "tileheight": 64,
      "columns": 17,
      "tilecount": 204,
      "spacing": 0,
      "margin": 0
    }
  ]
}
