{
  "type": "map",
  "version": "1.10",
  "tiledversion": "1.10.2",
  "orientation": "orthogonal",
  "renderorder": "right-down",
  "class": "level",
  "width": 20,
  "height": 11,
  "tilewidth": 64,
  "tileheight": 64,
  "infinite": false,
  "backgroundcolor": "#1c242e",
  "layers": [
    {
      "id": 1,
      "name": "Ground",
      "type": "tilelayer",
      "visible": true,
      "opacity": 1,
      "x": 0,
      "y": 0,
      "width": 20,
      "height": 11,
      "data": [
        29,
        19,
        19,
        19,
        19,
        19,
        19,
        19,
        19,
        19,
        19,
        19,
        19,
        19,
        19,
        19,
        19,
        19,
        19,
        29,
        29,
        19,
        19,
        19,
        19,
        19,
        19,
        19,
        19,
        19,
        19,
        19,
        19,
        19,
        19,
        19,
        19,
        19,
        19,
        29,
        29,
        19,
        19,
        19,
        19,
        19,
        19,
        19,
        19,
        19,
        19,
        19,
        19,
        19,
        19,
        19,
        19,
        19,
        19,
        29,
        29,
        19,
        19,
        19,
        19,
        19,
        19,
        19,
        19,
        19,
        19,
        19,
        19,
        19,
        19,
        19,
        19,
        19,
        19,
        29,
        29,
        19,
        19,
        19,
        19,
        19,
        19,
        19,
        19,
        19,
        19,
        19,
        29,
        29,
        29,
        29,
        19,
        19,
        19,
        29,
        29,
        19,
        19,
        19,
        19,
        19,
        19,
        19,
        19,
        19,
        19,
        19,
        19,
        19,
        19,
        19,
        19,
        19,
        19,
        29,
        29,
        19,
        19,
        19,
        29,
        29,
        29,
        29,
        19,
        19,
        19,
        19,
        19,
        19,
        19,
        19,
        19,
        19,
        19,
        29,
        29,
        19,
        19,
        19,
        19,
        19,
        19,
        19,
        19,
        19,
        19,
        19,
        19,
        19,
        19,
        19,
        19,
        19,
        19,
        29,
        29,
        19,
        19,
        19,
        19,
        19,
        19,
        19,
        19,
        19,
        19,
        19,
        19,
        19,
        19,
        19,
        19,
        19,
        19,
        29,
        29,
        19,
        19,
        19,
        19,
        19,
        19,
        19,
        19,
        19,
        19,
        19,
        19,
        19,
        19,
        19,
        19,
        19,
        19,
        29,
        29,
        29,
        29,
        29,
        29,
        29,
        29,
        29,
        29,
        29,
        29,
        29,
        29,
        29,
        29,
        29,
        29,
        29,
        29,
        29
      ]
    },
    {
      "id": 2,
      "name": "Collision",
      "type": "objectgroup",
      "visible": true,
      "opacity": 1,
      "x": 0,
      "y": 0,
      "draworder": "topdown",
      "objects": [
        {
          "id": 1,
          "name": "floor",
          "type": "solid",
          "x": 0,
          "y": 640,
          "width": 1280,
          "height": 64,
          "rotation": 0,
          "visible": true
        },
        {
          "id": 2,
          "name": "left-wall",
          "type": "solid",
          "x": 0,
          "y": 0,
          "width": 64,
          "height": 704,
          "rotation": 0,
          "visible": true
        },
        {
          "id": 3,
          "name": "right-wall",
          "type": "solid",
          "x": 1216,
          "y": 0,
          "width": 64,
          "height": 704,
          "rotation": 0,
          "visible": true
        },
        {
          "id": 4,
          "name": "low-platform",
          "type": "solid",
          "x": 256,
          "y": 384,
          "width": 256,
          "height": 64,
          "rotation": 0,
          "visible": true
        },
        {
          "id": 5,
          "name": "high-platform",
          "type": "solid",
          "x": 768,
          "y": 256,
          "width": 256,
          "height": 64,
          "rotation": 0,
          "visible": true
        }
      ]
    }
  ],
  "tilesets": [
    {
      "firstgid": 1,
      "name": "map-pack",
      "image": "../../demo/vendor/kenney/map-pack/Tilesheet/mapPack_tilesheet.png",
      "imagewidth": 1088,
      "imageheight": 768,
      "tilewidth": 64,
      "tileheight": 64,
      "columns": 17,
      "tilecount": 204,
      "spacing": 0,
      "margin": 0
    }
  ]
}
